X: 31072
T: Paddy Cronin's
R: reel
M: 4/4
K: Fmajor
G2dG G2dG|G2dc AFFD|G2dG Acde|fa^fc A=FFD|
G2dG G2dG|G2dc AFFD|G2dG Acde|fe^fc A=FF2||
G2gd BccB|GBgB AFF2|G2gd BccB|AFcF AFF2|
G2gd BccB|GBgB AFF2|G=B=bg ^fdge|^fcd=B AFcD||

